proprietary/assets/icons/energie-en-chemie/radioactiviteit.svg

<svg height="64" viewBox="0 0 64 64" width="64" xmlns="http://www.w3.org/2000/svg"><path d="m0 0h64v64h-64z" fill="none"/><path d="m31.7 42c-15 3.5-17.8 3.4-24.8.7s-.4 0-.2.7c.9 2.7 8.3 5.9 19.7 3.9 8.2-1.4 14.4-1.7 18.4.9 2.5 1.7 2.2 4 1.9 5.9 9 1.7 6.7-17.2-15-12.1z"/><path d="m31.7 42c-15 3.5-17.8 3.4-24.8.7s-.4 0-.2.7c.9 2.7 8.3 5.9 19.7 3.9 8.2-1.4 14.4-1.7 18.4.9 2.5 1.7 2.2 4 1.9 5.9 9 1.7 6.7-17.2-15-12.1zm-5.5-15.7c4.6-2.4 7-8 6.5-10.3-.1-.3-.3-.3-.4-.3-1.4 1.5-3.1 3.6-4.8 5-5.3 4.4-9.5 2.8-10.6.9-.2-.1-.4.1-.5.6-.8 3.9 4.5 7 9.8 4.1zm21.6 3-1.6 2.8c.7.4 1.1 1.1 1.1 1.9h3.2c0-2-1.1-3.8-2.7-4.7zm-35.6 5.9c2.3 2.1 5.5 4.4 9.3 3.8 5.1-.7 6.9-7.5 5.7-7.5-12.4 9.3-17.2-11.1-26.1-5.5-.4.2-.1.5-.1.5 5.8 1.2 7.4 5.2 11.2 8.7zm50.4 6.8-16-27c-.4-.6-1-1-1.7-1-.7 0-1.4.4-1.7 1l-14.7 25.4c.8-.2 1.7-.4 2.7-.6.6-.1 1.4-.3 2.4-.5l11.4-19.7 12.6 21.4h-9.8c1.6.9 3.1 2.1 4.3 3.8 0 .1.1.1.1.2h8.7c.7 0 1.4-.4 1.7-1s.4-1.4 0-2zm-23-8h3.2c0-.8.5-1.5 1.1-1.9l-1.6-2.8c-1.6.9-2.7 2.7-2.7 4.7zm5.4 2.2c-.4 0-.8-.1-1.1-.3l-1.6 2.8c.8.5 1.7.7 2.7.7s1.9-.3 2.7-.7l-1.6-2.8c-.3.2-.7.3-1.1.3zm0-3.5c-.7 0-1.3.6-1.3 1.3s.6 1.3 1.3 1.3 1.3-.6 1.3-1.3-.6-1.3-1.3-1.3z"/></svg>

<?xml version="1.0" encoding="utf-8"?>
<!-- Generator: Adobe Illustrator 21.0.2, SVG Export Plug-In . SVG Version: 6.00 Build 0)  -->
<svg version="1.2" baseProfile="tiny" xmlns="http://www.w3.org/2000/svg" xmlns:xlink="http://www.w3.org/1999/xlink" x="0px"
	 y="0px" width="64px" height="64px" viewBox="0 0 64 64" xml:space="preserve">
<g id="Box">
	<rect fill="none" width="64" height="64"/>
</g>
<g id="Icon">
	<path d="M31.7,42c-15,3.5-17.8,3.4-24.8,0.7l0,0c0,0-0.4,0-0.2,0.7c0.9,2.7,8.3,5.9,19.7,3.9c8.2-1.4,14.4-1.7,18.4,0.9
		c2.5,1.7,2.2,4,1.9,5.9C55.7,55.8,53.4,36.9,31.7,42z"/>
	<g>
		<path d="M31.7,42c-15,3.5-17.8,3.4-24.8,0.7l0,0c0,0-0.4,0-0.2,0.7c0.9,2.7,8.3,5.9,19.7,3.9c8.2-1.4,14.4-1.7,18.4,0.9
			c2.5,1.7,2.2,4,1.9,5.9C55.7,55.8,53.4,36.9,31.7,42z M26.2,26.3c4.6-2.4,7-8,6.5-10.3c-0.1-0.3-0.3-0.3-0.4-0.3
			c-1.4,1.5-3.1,3.6-4.8,5c-5.3,4.4-9.5,2.8-10.6,0.9c-0.2-0.1-0.4,0.1-0.5,0.6C15.6,26.1,20.9,29.2,26.2,26.3z M47.8,29.3l-1.6,2.8
			c0.7,0.4,1.1,1.1,1.1,1.9h3.2C50.5,32,49.4,30.2,47.8,29.3z M12.2,35.2c2.3,2.1,5.5,4.4,9.3,3.8c5.1-0.7,6.9-7.5,5.7-7.5
			c-12.4,9.3-17.2-11.1-26.1-5.5C0.7,26.2,1,26.5,1,26.5l0,0C6.8,27.7,8.4,31.7,12.2,35.2z M62.6,42l-16-27c-0.4-0.6-1-1-1.7-1h0
			c-0.7,0-1.4,0.4-1.7,1L28.5,40.4c0.8-0.2,1.7-0.4,2.7-0.6c0.6-0.1,1.4-0.3,2.4-0.5L45,19.6L57.6,41h-9.8c1.6,0.9,3.1,2.1,4.3,3.8
			c0,0.1,0.1,0.1,0.1,0.2h8.7c0.7,0,1.4-0.4,1.7-1S63,42.6,62.6,42z M39.6,34h3.2c0-0.8,0.5-1.5,1.1-1.9l-1.6-2.8
			C40.7,30.2,39.6,32,39.6,34z M45,36.2c-0.4,0-0.8-0.1-1.1-0.3l-1.6,2.8c0.8,0.5,1.7,0.7,2.7,0.7c1,0,1.9-0.3,2.7-0.7l-1.6-2.8
			C45.8,36.1,45.4,36.2,45,36.2z M45,32.7c-0.7,0-1.3,0.6-1.3,1.3s0.6,1.3,1.3,1.3c0.7,0,1.3-0.6,1.3-1.3S45.7,32.7,45,32.7z"/>
	</g>
</g>
</svg>
